X: 1
T: Mist-Covered Mountains, The
O: Scotland
Z: Hiroyuki Yamada
R: waltz
M: 6/8
L: 1/8
Q: 120
Z: Contributed 20040625194939 by Hiroyuki Yamada slainte_mha@infoseek.jp
K: Ador
A2 A A>BA | e2 e e>dB | G2 G G2A| B>AB A>GE |
c2 c d2 d | e>fg B>AG | A>Be d>cB | A3 A3:|
e2 e e2 e | d>eg B>AG | G2G d2B | e2 e d>cB|
c2 c d2 d | e>fg B>AG | A>Be d>cB | A3 A3:|
